Sardi-Mono-Papirus-Colora-Havelock/scalable/places/folder-visiting.svg

<svg height="48" width="48" xmlns="http://www.w3.org/2000/svg">
 <text opacity=".8" x="877.23" y="10.81">
  
 </text>
 <text opacity=".8" x="901.19" y="-29.93">
  
 </text>
 <text opacity=".8" x="-569.37" y="-60.01">
  
 </text>
 <text opacity=".8" x="-2393.06" y="685.55">
  
 </text>
 <text opacity=".8" x="-454.88" y="-445.33">
  
 </text>
 <text opacity=".8" x="352.72" y="-858.8">
  
 </text>
 <text opacity=".8" x="376.68" y="-899.54">
  
 </text>
 <text opacity=".8" x="-1114.78" y="-906.75">
  
 </text>
 <text opacity=".8" x="345.76" y="-1179.98">
  
 </text>
 <text opacity=".8" x="1831.89" y="-553.29">
  
 </text>
 <text opacity=".8" x="1855.85" y="-594.03">
  
 </text>
 <text opacity=".8" x="364.38" y="-601.24">
  
 </text>
 <text opacity=".8" x="1824.93" y="-874.48">
  
 </text>
 <text opacity=".8" x="-573.43" y="-649.34">
  
 </text>
 <text opacity=".8" x="-2397.12" y="96.22">
  
 </text>
 <text opacity=".8" x="-682.36" y="189.09">
  
 </text>
 <text opacity=".8" x="426.66" y="9.91">
  
 </text>
 <text opacity=".8" x="450.62" y="-30.83">
  
 </text>
 <text opacity=".8" x="-1040.84" y="-38.04">
  
 </text>
 <text opacity=".8" x="419.7" y="-311.28">
  
 </text>
 <text opacity=".8" x="-608.03" y="-40.76">
  
 </text>
 <text opacity=".8" x="-2431.72" y="704.79">
  
 </text>
 <text opacity=".8" x="-456.94" y="-902.29">
  
 </text>
 <text opacity=".8" x="350.66" y="-1315.76">
  
 </text>
 <text opacity=".8" x="374.62" y="-1356.5">
  
 </text>
 <text opacity=".8" x="-1116.84" y="-1363.71">
  
 </text>
 <text opacity=".8" x="343.7" y="-1636.94">
  
 </text>
 <text opacity=".8" x="1829.83" y="-1010.25">
  
 </text>
 <text opacity=".8" x="1853.79" y="-1050.99">
  
 </text>
 <text opacity=".8" x="362.32" y="-1058.2">
  
 </text>
 <text opacity=".8" x="1822.87" y="-1331.44">
  
 </text>
 <text opacity=".8" x="-575.49" y="-1106.3">
  
 </text>
 <text opacity=".8" x="-2399.18" y="-360.74">
  
 </text>
 <text opacity=".8" x="-684.42" y="-267.87">
  
 </text>
 <text opacity=".8" x="155.59" y="-26.96">
  
 </text>
 <text opacity=".8" x="179.55" y="-67.7">
  
 </text>
 <text opacity=".8" x="-1090.26" y="-261.73">
  
 </text>
 <text opacity=".8" x="-282.66" y="-675.2">
  
 </text>
 <text opacity=".8" x="-258.7" y="-715.94">
  
 </text>
 <text opacity=".8" x="-1750.16" y="-723.15">
  
 </text>
 <text opacity=".8" x="-289.62" y="-996.38">
  
 </text>
 <text opacity=".8" x="1196.5" y="-369.69">
  
 </text>
 <text opacity=".8" x="1220.46" y="-410.43">
  
 </text>
 <text opacity=".8" x="-271" y="-417.64">
  
 </text>
 <text opacity=".8" x="1189.54" y="-690.88">
  
 </text>
 <text opacity=".8" x="-1208.82" y="-465.73">
  
 </text>
 <text opacity=".8" x="-3032.5" y="279.82">
  
 </text>
 <text opacity=".8" transform="matrix(.90475 0 0 .90475 -716.75 -676.29)" x="-664.27" y="1159.41">
  
 </text>
 <text opacity=".8" x="877.23" y="18.05">
  
 </text>
 <text opacity=".8" x="901.19" y="-22.69">
  
 </text>
 <text opacity=".8" x="-569.37" y="-52.77">
  
 </text>
 <text opacity=".8" x="-2393.06" y="692.78">
  
 </text>
 <text opacity=".8" x="-454.88" y="-438.09">
  
 </text>
 <text opacity=".8" x="352.72" y="-851.56">
  
 </text>
 <text opacity=".8" x="376.68" y="-892.3">
  
 </text>
 <text opacity=".8" x="-1114.78" y="-899.51">
  
 </text>
 <text opacity=".8" x="345.76" y="-1172.75">
  
 </text>
 <text opacity=".8" x="1831.89" y="-546.05">
  
 </text>
 <text opacity=".8" x="1855.85" y="-586.8">
  
 </text>
 <text opacity=".8" x="364.38" y="-594.01">
  
 </text>
 <text opacity=".8" x="1824.93" y="-867.24">
  
 </text>
 <text opacity=".8" x="-573.43" y="-642.1">
  
 </text>
 <text opacity=".8" x="-2397.12" y="103.46">
  
 </text>
 <text opacity=".8" x="-682.36" y="196.33">
  
 </text>
 <text opacity=".8" x="426.66" y="17.15">
  
 </text>
 <text opacity=".8" x="450.62" y="-23.6">
  
 </text>
 <text opacity=".8" x="-1040.84" y="-30.81">
  
 </text>
 <text opacity=".8" x="419.7" y="-304.04">
  
 </text>
 <text opacity=".8" x="-608.03" y="-33.52">
  
 </text>
 <text opacity=".8" x="-2431.72" y="712.03">
  
 </text>
 <text opacity=".8" x="-456.94" y="-895.05">
  
 </text>
 <text opacity=".8" x="350.66" y="-1308.52">
  
 </text>
 <text opacity=".8" x="374.62" y="-1349.26">
  
 </text>
 <text opacity=".8" x="-1116.84" y="-1356.47">
  
 </text>
 <text opacity=".8" x="343.7" y="-1629.71">
  
 </text>
 <text opacity=".8" x="1829.83" y="-1003.01">
  
 </text>
 <text opacity=".8" x="1853.79" y="-1043.76">
  
 </text>
 <text opacity=".8" x="362.32" y="-1050.97">
  
 </text>
 <text opacity=".8" x="1822.87" y="-1324.2">
  
 </text>
 <text opacity=".8" x="-575.49" y="-1099.06">
  
 </text>
 <text opacity=".8" x="-2399.18" y="-353.5">
  
 </text>
 <text opacity=".8" x="-684.42" y="-260.63">
  
 </text>
 <text opacity=".8" x="155.59" y="-19.72">
  
 </text>
 <text opacity=".8" x="179.55" y="-60.46">
  
 </text>
 <text opacity=".8" x="-1090.26" y="-254.49">
  
 </text>
 <text opacity=".8" x="-282.66" y="-667.96">
  
 </text>
 <text opacity=".8" x="-258.7" y="-708.7">
  
 </text>
 <text opacity=".8" x="-1750.16" y="-715.91">
  
 </text>
 <text opacity=".8" x="-289.62" y="-989.14">
  
 </text>
 <text opacity=".8" x="1196.5" y="-362.45">
  
 </text>
 <text opacity=".8" x="1220.46" y="-403.19">
  
 </text>
 <text opacity=".8" x="-271" y="-410.4">
  
 </text>
 <text opacity=".8" x="1189.54" y="-683.64">
  
 </text>
 <text opacity=".8" x="-1208.82" y="-458.5">
  
 </text>
 <text opacity=".8" x="-3032.5" y="287.06">
  
 </text>
 <text opacity=".8" transform="matrix(.90475 0 0 .90475 -716.75 -669.05)" x="-664.27" y="1159.41">
  
 </text>
 <text x="435.9" y="-361.23">
  
 </text>
 <text opacity=".8" x="901.09" y="-843.27">
  
 </text>
 <text opacity=".8" x="-922.6" y="-97.72">
  
 </text>
 <text opacity=".8" x="1628.17" y="-1128.27">
  
 </text>
 <text opacity=".8" x="1652.13" y="-1169.01">
  
 </text>
 <text opacity=".8" x="160.66" y="-1176.22">
  
 </text>
 <text opacity=".8" x="1621.21" y="-1449.45">
  
 </text>
 <path d="m4 36v-28c0-1.108.8988-2.1224 2-2h16l4 4h16.103c0 0 1.8975 0 1.8975 2v24c0 1.108-.892 2-2 2h-36c-1.108 0-2-.892-2-2z" fill="#5895dc"/>
 <path d="m44 40v-28c0-1.108-.89878-2.1224-2-2h-16l-4 4h-16c-2 0-2 1.9167-2 1.9167v24.083c0 1.108.892 2 2 2h36c1.108 0 2-.892 2-2z" fill="#6ba4e7"/>
 <path d="m6 6c-1.108 0-2 .892-2 2v1c0-1.108.892-2 2-2h16l4 4v-1l-4-4z" fill="#ffffff" opacity=".1"/>
 <path d="m26 10l-2.287109 2.287109 20.287109 11.712891v-4.619141l-16.248047-9.380859zm9.75 0l8.25 4.763672v-2.763672c0-1.108-.89878-2.1224-2-2zm-25.070312 4l33.320312 19.238281v-4.61914l-25.322266-14.619141zm-6.4042974.921875c-.2703808.491513-.2753906.994141-.2753906.994141v3.464843l38.845703 22.427735c.681239-.318185 1.154297-1.004469 1.154297-1.808594v-2.142578zm-.2753906 9.078125v4.619141l23.175781 13.380859h8.001953zm0 9.236328v4.621094l7.175781 4.142578h8.001953z" fill="#253951"/>
 <path d="m26 10l-4 4h-16c-2 0-2 1.9062-2 1.9062v1c0 0 0-1.906 2-1.906h16l4-4h16c1.1012-.1224 2 .892 2 2v-1c0-1.108-.89878-2.1224-2-2h-16z" fill="#ffffff" opacity=".1"/>
 <path d="m25 10l-3 3h-16c-2 0-2 1.9062-2 1.9062v1c0 0 0-1.906 2-1.906h16l3.5-3.5z" opacity=".1"/>
 <path d="m4 38.989v1.006c0 1.108.892 2 2 2h36c1.108 0 2-.892 2-2v-1.0059c0 1.108-.892 2-2 2h-36c-1.108 0-2-.892-2-2z" opacity=".3"/>
</svg>

<svg xmlns="http://www.w3.org/2000/svg" height="48" width="48"><path d="M4 36V8c0-1.108.9-2.122 2-2h16l4 4h16.103S44 10 44 12v24c0 1.108-.89 2-2 2H6c-1.107 0-2-.892-2-2z" fill="#5895dc"/><path d="M44 40V12c0-1.108-.9-2.122-2-2H26l-4 4H6c-2 0-2 1.917-2 1.917V40c0 1.108.892 2 2 2h36c1.108 0 2-.892 2-2z" fill="#6ba4e7"/><path d="M6 6c-1.108 0-2 .892-2 2v1c0-1.108.892-2 2-2h16l4 4v-1l-4-4z" fill="#fff" opacity=".1"/><path d="M26 10l-4 4H6c-2 0-2 1.906-2 1.906v1S4 15 6 15h16l4-4h16c1.1-.122 2 .892 2 2v-1c0-1.108-.9-2.122-2-2H26z" fill="#fff" opacity=".1"/><path d="M25 10l-3 3H6c-2 0-2 1.906-2 1.906v1S4 14 6 14h16l3.5-3.5z" opacity=".1"/><path d="M4 38.99v1.005c0 1.108.892 2 2 2h36c1.108 0 2-.892 2-2V38.99c0 1.107-.892 2-2 2H6c-1.108 0-2-.893-2-2z" opacity=".3"/></svg>
